X:195
T: You'll Go A-Hunting No More
S: "Roche Collection of Traditional Irish Music" [I/45/106]
L: 1/8
M: 6/8
R: jig
K: G
B | dBB BGG | DGG G>AB | cee dBG | FAA A>Bc |
dBB BGG | DGG G>AB | cee dcA |1 BGG G2 :|2 BGG G2 B/d/ ||
gfe dBA | Bee e2f | gfg eag | fdd d>ef |
gfe dBA | Bee e2f | gfg aga |1 bgg g2 e/f/ :|2 bag gfe |]
